X:76
T:Bonniest Lass of aw the World,With Vars. RH.076
R:Air
S:Rev.R.Harrison’s MS,c1815,Cumbria
N:I wish they’d chosen deserving tunes for these
N:interminable “variations”. PJH.
O:England
A:Temple Sowerby,Cumbria
Z:vmp.Simon Wilson. Review PJH, 2008.
M:C|
L:1/16
Q:1/2=60
K:G
|:G2A2|B4D4 E4G4|c2B2A2G2 E4D2E2|\
G4g4 d2e2f2d2|e8 d4d2e2|!
g2f2e2d2 e2f2g2B2|c2B2A2G2 E4D2E2|\
G4g4 d2e2c2d2|B6A2 G4:|!
|:e2f2|g2f2e2d2 e2f2g2e2|a2g2f2e2 f2a2a2f2|\
g2f2g2a2 b2g2a2b2|e8d4g2a2|!
b2a2g2f2 d2e2g2B2|c2B2A2G2E4D2E2|\
G4g4d2e2c2d2|B6A2G4:|!
|:”Var’n 1st”\
G2A2|B2d2 D2G2 E3DE2G2|c2B2A2G2 E2G2D2F2|\
G2G2B2d2 g2ba gfed|e8d4e2f2|!
g2ba gfed e2gf edcB|(c2B2)(A2G2) (E2G2)(D2F2)|\
G2g2(f2e2) (dcde) (cBcd)|B6A2G4:|!
|:”2nd”e2f2|\
gfgf e2d2 e2f2g2e2|bgbg f2d2 fdfg afga|!
gfga b2ga bgab|e8d4g2a2|!
baba g2e2 d2gf edcB|c2Bc A2G2E4D2E2|\
G2g4fe dgfe dcBc|B6A2G4:|!
|:”3rd”G2A2|B2d4D2 E2G4B2|A2cB ABAGE4D2E2|\
G2B4d4ef g2e2|e8d4e2f2|!
g2bg d2gd e2ge B2dB|cdcB ABAGE4D2E2|\
G2gf g2fe d2AB c2d2|Bgfe dcBAG4:|!
|:”4th”e2f2|g2d2e2=f2{f}e4z2e2|\
agab abagf6f2|g2f2g2a2 b2d2g2b2|e8d4g2a2|!
bag2 gfe2{e}d6B2|(c2B2)(A2G2) (E2G2)(D2E2)|\
G2g4fe d2cB ABcd|B6A2G4:|

